build/svg/svx/res/marker-rectplus9-3.svg

<svg viewBox="0 0 9 9" xmlns="http://www.w3.org/2000/svg"><path d="m0 0v9h9v-9zm4 1h1v1 2h2 1v1h-1-2v2 1h-1v-1-2h-2-1v-1h1 2v-2z" fill="#0e8420" opacity=".8"/><path d="m4 1v3h-3v1h3v3h1v-3h3v-1h-3v-3z" fill="#fff" opacity=".8"/></svg>

<svg viewBox="0 0 9 9" xmlns="http://www.w3.org/2000/svg"><path d="M0 0v9h9V0zm4 1h1v3h3v1H5v3H4V5H1V4h3V2z" fill="#0e8420" opacity=".8"/><path d="M4 1v3H1v1h3v3h1V5h3V4H5V1z" fill="#fff" opacity=".8"/></svg>
